X:10616
T:\AA karda og spinna
T:(Spinning song)
C:anon., arr. Frank Nordberg
O:Norway
N:Sven Moren's lyrics might still be copyright protected.
Z:Transcribed by Frank Nordberg - http://www.musicaviva.com
F:http://abc.musicaviva.com/tunes/norway/aa-karda-og-d/aa-karda-og-d-ddad1.abc
V:1 Program 1 25 up %Acoustic guitar
V:2 Program 1 25 merge down %Acoustic guitar
M:3/4
L:1/4
Q:1/4=115
K:D
V:1
Ha|ABc|dda|ABc|ddf/g/|
V:2
Hz|[D,3D3]|[D,3D3A3]|[D,3D3]|[D,3D3A3]|
%
V:1
aaf/g/|aad|ffe|a2f/g/|
V:2
[D,3D3A3]|[D,3D3A3]|[D,3D3A3]|[D,3D3A3]|
%
V:1
aaf/g/|aad/d/|ffe|d2|]
V:2
[D,3D3A3]|[D,3D3A3]|[D,3D3A3]|[D,2D2A2]|
W:
W:
W:  From Musica Viva - http://www.musicaviva.com
W:  the Internet center for free sheet music downloads.
